packages/icons/svg/Fill/home.svg

<svg fill="none" height="24" viewBox="0 0 24 24" width="24" xmlns="http://www.w3.org/2000/svg"><path clip-rule="evenodd" d="m12.7148 2.30071 7.709 7.88399c.366.376.576.9.576 1.439v8.376c0 1.103-.847 2-1.888 2h-3.112v-9c0-.552-.447-1-1-1h-6.00001c-.553 0-1 .448-1 1v9h-3.111c-1.041 0-1.889-.897-1.889-2v-8.376c0-.539.21-1.063.575-1.438l7.71001-7.88499c.377-.385 1.053-.385 1.43 0zm1.2852 18.69939h-4.00002v-7h4.00002z" fill="#6b7280" fill-rule="evenodd"/></svg>

<svg width="24" height="24" viewBox="0 0 24 24" fill="none" xmlns="http://www.w3.org/2000/svg">
<g id="Icon/Fill/home">
<path id="Mask" fill-rule="evenodd" clip-rule="evenodd" d="M12.7148 2.30059L20.4238 10.1846C20.7898 10.5606 20.9998 11.0846 20.9998 11.6236V19.9996C20.9998 21.1026 20.1528 21.9996 19.1118 21.9996H15.9998V12.9996C15.9998 12.4476 15.5528 11.9996 14.9998 11.9996H8.99976C8.44676 11.9996 7.99976 12.4476 7.99976 12.9996V21.9996H4.88876C3.84776 21.9996 2.99976 21.1026 2.99976 19.9996V11.6236C2.99976 11.0846 3.20976 10.5606 3.57476 10.1856L11.2848 2.30059C11.6618 1.91559 12.3378 1.91559 12.7148 2.30059ZM14 21H9.99996V14H14V21Z" fill="#000000"/>
</g>
</svg>
